X: 1673
T: Anonn Is Anall
R: jig
M: 6/8
K: Cmajor
cde G2G|c2e dc2|g2e d3|g2e d3|
cde G2G|c2e dc2|gec d2e|c6||
g2e c2g|e2c dG2|g2e c2d|e2c ed2|
g2e c2g|e2c dG2|cde d2e|c6||

